svg/user/user_5_line.svg

<?xml version="1.0" encoding="UTF-8"?>
<svg width="24px" height="24px" viewBox="0 0 24 24" version="1.1" xmlns="http://www.w3.org/2000/svg" xmlns:xlink="http://www.w3.org/1999/xlink">
    <title>user_5_line</title>
    <g id="页面-1" stroke="none" stroke-width="1" fill="none" fill-rule="evenodd">
        <g id="User" transform="translate(-288.000000, 0.000000)">
            <g id="user_5_line" transform="translate(288.000000, 0.000000)">
                 <path d="M24,0 L24,24 L0,24 L0,0 L24,0 Z M12.5934901,23.257841 L12.5819402,23.2595131 L12.5108777,23.2950439 L12.4918791,23.2987469 L12.4918791,23.2987469 L12.4767152,23.2950439 L12.4056548,23.2595131 C12.3958229,23.2563662 12.3870493,23.2590235 12.3821421,23.2649074 L12.3780323,23.275831 L12.360941,23.7031097 L12.3658947,23.7234994 L12.3769048,23.7357139 L12.4804777,23.8096931 L12.4953491,23.8136134 L12.4953491,23.8136134 L12.5071152,23.8096931 L12.6106902,23.7357139 L12.6232938,23.7196733 L12.6232938,23.7196733 L12.6266527,23.7031097 L12.609561,23.275831 C12.6075724,23.2657013 12.6010112,23.2592993 12.5934901,23.257841 L12.5934901,23.257841 Z M12.8583906,23.1452862 L12.8445485,23.1473072 L12.6598443,23.2396597 L12.6498822,23.2499052 L12.6498822,23.2499052 L12.6471943,23.2611114 L12.6650943,23.6906389 L12.6699349,23.7034178 L12.6699349,23.7034178 L12.678386,23.7104931 L12.8793402,23.8032389 C12.8914285,23.8068999 12.9022333,23.8029875 12.9078286,23.7952264 L12.9118235,23.7811639 L12.8776777,23.1665331 C12.8752882,23.1545897 12.8674102,23.1470016 12.8583906,23.1452862 L12.8583906,23.1452862 Z M12.1430473,23.1473072 C12.1332178,23.1423925 12.1221763,23.1452606 12.1156365,23.1525954 L12.1099173,23.1665331 L12.0757714,23.7811639 C12.0751323,23.7926639 12.0828099,23.8018602 12.0926481,23.8045676 L12.108256,23.8032389 L12.3092106,23.7104931 L12.3186497,23.7024347 L12.3186497,23.7024347 L12.3225043,23.6906389 L12.340401,23.2611114 L12.337245,23.2485176 L12.337245,23.2485176 L12.3277531,23.2396597 L12.1430473,23.1473072 Z" id="MingCute" fill-rule="nonzero"></path>
                <path d="M9.58578,15 C10.1162,15 10.6249,15.2107 11,15.5858 L11,15.5858 L12,16.5858 L13,15.5858 C13.3751,15.2107 13.8838,15 14.4142,15 L14.4142,15 L18.4384,15 C19.815,15 21.015,15.9369 21.3489,17.2724 L21.3489,17.2724 L21.9701,19.7575 C22.1041,20.2933 21.7783,20.8362 21.2425,20.9701 C20.7067,21.1041 20.1638,20.7783 20.0299,20.2425 L20.0299,20.2425 L19.4086,17.7575 C19.2973,17.3123 18.8973,17 18.4384,17 L18.4384,17 L14.4142,17 L13.4142,18 C12.6332,18.781 11.3668,18.781 10.5858,18 L10.5858,18 L9.58578,17 L5.56155,17 C5.10268,17 4.70269,17.3123 4.5914,17.7575 L4.5914,17.7575 L3.97013,20.2425 C3.83619,20.7783 3.29325,21.1041 2.75746,20.9701 C2.22166,20.8362 1.8959,20.2933 2.02985,19.7575 L2.02985,19.7575 L2.65112,17.2724 C2.98499,15.9369 4.18494,15 5.56155,15 L5.56155,15 Z M12,2 C12.7843,2 13.6611,2.19065 14.3802,2.39097 C16.0426,2.85411 17,4.40951 17,5.99673 L17,5.99673 L17,10.0033 C17,11.5905 16.0426,13.1459 14.3802,13.609 C13.6611,13.8093 12.7843,14 12,14 C11.2158,14 10.3389,13.8093 9.61982,13.609 C7.95736,13.1459 7,11.5905 7,10.0033 L7,10.0033 L7,5.99673 C7,4.40951 7.95736,2.85411 9.61982,2.39097 C10.3389,2.19065 11.2157,2 12,2 Z M12,4 C11.491,4 10.8232,4.13189 10.1566,4.3176 C9.48885,4.50362 9,5.16504 9,5.99673 L9,5.99673 L9,10.0033 C9,10.835 9.48885,11.4964 10.1566,11.6824 C10.8232,11.8681 11.491,12 12,12 C12.509,12 13.1768,11.8681 13.8434,11.6824 C14.5112,11.4964 15,10.835 15,10.0033 L15,10.0033 L15,5.99673 C15,5.16504 14.5112,4.50362 13.8434,4.3176 C13.1768,4.13189 12.509,4 12,4 Z" id="形状结合" fill="#09244B"></path>
            </g>
        </g>
    </g>
</svg>

<svg xmlns="http://www.w3.org/2000/svg" width="24" height="24"><g fill="none" fill-rule="evenodd"><path d="M24 0v24H0V0h24ZM12.593 23.258l-.011.002-.071.035-.02.004-.014-.004-.071-.035c-.01-.004-.019-.001-.024.005l-.004.01-.017.428.005.02.01.013.104.074.015.004.012-.004.104-.074.012-.016.004-.017-.017-.427c-.002-.01-.009-.017-.017-.018Zm.265-.113-.013.002-.185.093-.01.01-.003.011.018.43.005.012.008.007.201.093c.012.004.023 0 .029-.008l.004-.014-.034-.614c-.003-.012-.01-.02-.02-.022Zm-.715.002a.023.023 0 0 0-.027.006l-.006.014-.034.614c0 .012.007.02.017.024l.015-.002.201-.093.01-.008.004-.011.017-.43-.003-.012-.01-.01-.184-.092Z"/><path fill="#09244B" d="M9.586 15a2 2 0 0 1 1.414.586l1 1 1-1A2 2 0 0 1 14.414 15h4.024a3 3 0 0 1 2.91 2.272l.622 2.486a1 1 0 1 1-1.94.485l-.621-2.485a1 1 0 0 0-.97-.758h-4.025l-1 1a2 2 0 0 1-2.828 0l-1-1H5.562a1 1 0 0 0-.97.758l-.622 2.485a1 1 0 1 1-1.94-.485l.621-2.486A3 3 0 0 1 5.561 15ZM12 2c.784 0 1.661.19 2.38.391C16.043 2.854 17 4.41 17 5.997v4.006c0 1.588-.957 3.143-2.62 3.606-.719.2-1.596.391-2.38.391-.784 0-1.661-.19-2.38-.391C7.957 13.146 7 11.591 7 10.003V5.997c0-1.587.957-3.143 2.62-3.606C10.339 2.191 11.216 2 12 2Zm0 2c-.509 0-1.177.132-1.843.318C9.489 4.504 9 5.165 9 5.997v4.006c0 .832.489 1.493 1.157 1.68.666.185 1.334.317 1.843.317.509 0 1.177-.132 1.843-.318.668-.186 1.157-.847 1.157-1.679V5.997c0-.832-.489-1.493-1.157-1.68C13.177 4.133 12.51 4 12 4Z"/></g></svg>
